X:85
T: Einst ein Jaeger wollte jagen
N: D0096
O: Europa, Mitteleuropa, Deutschland, Baden, Freiburg i. Brsg.
N: Inzipit = Variante zum Lied
R: Liebes - Lied, abgewiesener Liebhaber
M: 6/4
L: 1/8
K: F
C3D | C2F2F4C3D | C2A2A4
B3A | G2C2G2C2G2A2 | F6z2
C3D | C2F2F4C3D | C2A2A4
B3A | G2C2G2C2G2A2 | F4z2
C2F2A2 | B2d2d4c3B | A2C2A4
B3A | G2C2G2C2G2A2 | F4z4

